X: 47
T:Rory Dall's Sister's Lament
M:3/4
L:1/4
B:"O'Neill's 47"
N:"Moderate" "collected by Dunning"
Z:"Transcribed by Norbert Paap, norbertp@bdu.uva.nl"
K:Ador
A> (BA/2B/2) | G> (AB/2d/2 | e E2 | e/2d/2B/2d/2e/2f/2 |
g G2 | g> (a(3(b/2a/2g/2)) | e d/2-e/2.g/2.d/2 | e d B |
g/2-e/2.d/2.e/2 g | e/2-d/2.B/2.d/2 e | G> (AB/2d/2) | ~B2 A ||
g> (ef/2g/2) | a> (fg/2a/2) | b> (ag/2a/2) | b> (d'(3(b/2a/2g/2)) |
a> ga/2b/2 | e'> d'b/2a/2 | g> (a(3(b/2a/2g/2)) | g f e/2d/2 |
d> (ef/2g/2) | g> (a(3(b/2a/2g/2)) | e> (de/2f/2) | e3/4g/4e/2d/2 (B/4d/4e/4f/4) |
g/2e/2 d/2e/2 g | e/2d/2 B/2d/2 e/2g/2 | G> (AB/2d/2) | ~B2 A ||


